packages/components/src/telekom/icons/weather/cloudy-thunder-snow/default.svg

<?xml version="1.0" encoding="UTF-8"?>
<svg width="24px" height="24px" viewBox="0 0 24 24" version="1.1" xmlns="http://www.w3.org/2000/svg" xmlns:xlink="http://www.w3.org/1999/xlink">
    <title>icon/weather/cloudy-thunder-snow/default</title>
    <g id="icon/weather/cloudy-thunder-snow/default" stroke="none" stroke-width="1" fill="none" fill-rule="evenodd">
        <path d="M8.8096,15.2 L6.2476,18.8 L8.7348,18.8 L3.688,22.878 C3.56056,22.98096 3.392944,22.84902 3.4350532,22.7116692 L3.4572,22.666 L5.2628,20 L3.3508,20 L6.012,15.2 L8.8096,15.2 Z M12.2804,15.0216 L13.3196,15.6216 L12.6392,16.8 L14,16.8 L14,18 L12.6392,18 L13.3196,19.1784 L12.2804,19.7784 L11.6,18.6 L10.9196,19.7784 L9.8804,19.1784 L10.5608,18 L9.2,18 L9.2,16.8 L10.5608,16.8 L9.8804,15.6216 L10.9196,15.0216 L11.6,16.2 L12.2804,15.0216 Z M10.4996,5.9812 C12.8528,5.9812 14.928,7.4328 15.742,9.62 C17.122,10.3508 18,11.7924 18,13.3636 C18,15.121552 16.921728,16.6288288 15.3933466,17.2685925 L15.2,17.344 L15.2,16.0376 C16.1516,15.5244 16.8,14.5184 16.8,13.3636 C16.8,12.2400889 16.172763,11.2089864 15.1865158,10.6837529 L15.0088,10.5964 L14.766,10.4868 L14.6844,10.2328 C14.0988,8.4072 12.4168,7.1808 10.4992,7.1808 C9.49415385,7.1808 8.52455385,7.5264 7.74235703,8.159397 L7.5508,8.3236 L7.2888,8.5616 L6.954,8.4472 C6.7108,8.3644 6.4628,8.3224 6.2156,8.3224 C5.01001667,8.3224 4.01970694,9.26247708 3.93927416,10.4480279 L3.934,10.604 L3.958,11.1208 L3.5852,11.2872 C2.6224,11.7176 2,12.6752 2,13.7272 C2,14.9165333 2.7814966,15.924098 3.85728539,16.2692546 L4.0208,16.316 L3.4256,17.39 C1.9008,16.8692 0.8,15.426 0.8,13.7272 C0.8,12.3356 1.5504,11.0584 2.742,10.372 C2.862,8.56 4.3744,7.1228 6.216,7.1228 C6.48,7.1228 6.744,7.1536 7.0036,7.2144 C7.9964,6.4168 9.2252,5.9812 10.4996,5.9812 Z M19.7464,10.5464 C19.9547556,10.3384 20.277837,10.3152889 20.5116872,10.4770667 L20.5948,10.5464 L21.444,11.3948 C21.6784,11.6292 21.6784,12.0092 21.444,12.2436 C21.3268,12.3608 21.1732,12.4192 21.0196,12.4192 C20.89672,12.4192 20.77384,12.381568 20.6695968,12.3067136 L20.5952,12.2436 L19.7464,11.3952 C19.512,11.1608 19.512,10.7804 19.7464,10.5464 Z M16.6,4.4 C18.2544,4.4 19.6,5.7456 19.6,7.4 C19.6,8.532 18.9696,9.5184 18.042,10.0292 C17.668,9.5496 17.2196,9.1256 16.698,8.7904 C16.1328,7.5272 15.2076,6.4956 14.0704,5.794 C14.6032,4.9576 15.5368,4.4 16.6,4.4 Z M22.85,6.8 C23.1812,6.8 23.45,7.0684 23.45,7.4 C23.45,7.69844 23.232272,7.945688 22.9472816,7.9921532 L22.85,8 L21.65,8 C21.3188,8 21.05,7.7316 21.05,7.4 C21.05,7.10156 21.267728,6.854312 21.5527184,6.8078468 L21.65,6.8 L22.85,6.8 Z M20.5956,2.5564 C20.83,2.3224 21.2096,2.322 21.444,2.5564 C21.6523556,2.76475556 21.6755062,3.08815309 21.5134519,3.32207353 L21.444,3.4052 L20.5952,4.2536 C20.478,4.3708 20.3244,4.4292 20.1708,4.4292 C20.0172,4.4292 19.8636,4.3704 19.7468,4.2536 C19.5384444,4.04524444 19.5152938,3.72184691 19.6773481,3.48792647 L19.7468,3.4048 L20.5956,2.5564 Z M11.7568,2.5564 C11.9651556,2.3484 12.288237,2.32528889 12.5220872,2.48706667 L12.6052,2.5564 L13.454,3.4048 C13.6884,3.6392 13.6884,4.0192 13.454,4.2536 C13.3368,4.3708 13.1832,4.4292 13.0296,4.4292 C12.90672,4.4292 12.78384,4.391568 12.6795968,4.3167136 L12.6052,4.2536 L11.7568,3.4052 C11.5224,3.1708 11.5224,2.7904 11.7568,2.5564 Z M16.6,0.55 C16.89808,0.55 17.145616,0.767404 17.1921424,1.0526212 L17.2,1.15 L17.2,2.35 C17.2,2.6816 16.9312,2.95 16.6,2.95 C16.30192,2.95 16.054384,2.732596 16.0078576,2.4473788 L16,2.35 L16,1.15 C16,0.8184 16.2688,0.55 16.6,0.55 Z" id="Shape" fill="#262626" fill-rule="nonzero"></path>
    </g>
</svg>

<svg width="24" height="24" xmlns="http://www.w3.org/2000/svg"><path d="M8.81 15.2l-2.562 3.6h2.487l-5.047 4.078c-.127.103-.295-.029-.253-.166l.022-.046L5.263 20H3.35l2.661-4.8H8.81zm3.47-.178l1.04.6-.68 1.178H14V18h-1.36l.68 1.178-1.04.6-.68-1.178-.68 1.178-1.04-.6.68-1.178H9.2v-1.2h1.36l-.68-1.178 1.04-.6.68 1.178.68-1.178zm-1.78-9.04a5.577 5.577 0 015.242 3.638A4.246 4.246 0 0118 13.364a4.238 4.238 0 01-2.607 3.905l-.193.075v-1.306a3.039 3.039 0 001.6-2.674 3.044 3.044 0 00-1.613-2.68l-.178-.088-.243-.11-.082-.253A4.381 4.381 0 0010.5 7.18a4.377 4.377 0 00-2.757.978l-.191.165-.262.238-.335-.115a2.286 2.286 0 00-.738-.125c-1.206 0-2.196.94-2.277 2.126l-.005.156.024.517-.373.166A2.677 2.677 0 002 13.727c0 1.19.781 2.197 1.857 2.542l.164.047-.595 1.074A3.876 3.876 0 01.8 13.727c0-1.391.75-2.669 1.942-3.355a3.486 3.486 0 014.262-3.158A5.574 5.574 0 0110.5 5.981zm9.246 4.564a.6.6 0 01.766-.069l.083.07.849.848a.6.6 0 01-.774.912l-.075-.063-.849-.849a.6.6 0 010-.849zM16.6 4.4c1.654 0 3 1.346 3 3 0 1.132-.63 2.118-1.558 2.63a5.44 5.44 0 00-1.344-1.24 6.765 6.765 0 00-2.628-2.996A2.998 2.998 0 0116.6 4.4zm6.25 2.4a.6.6 0 01.097 1.192L22.85 8h-1.2a.6.6 0 01-.097-1.192l.097-.008h1.2zm-2.254-4.244a.6.6 0 01.917.766l-.069.083-.849.849a.598.598 0 01-.848 0 .6.6 0 01-.07-.766l.07-.083.849-.849zm-8.84 0a.6.6 0 01.766-.069l.083.07.849.848a.6.6 0 01-.774.912l-.075-.063-.848-.849a.6.6 0 010-.849zM16.6.55a.6.6 0 01.592.503l.008.097v1.2a.6.6 0 01-1.192.097L16 2.35v-1.2a.6.6 0 01.6-.6z" fill="#000" fill-rule="evenodd"/></svg>
